images/webscope.svg

<svg height="31" viewBox="0 0 92 31" width="92" xmlns="http://www.w3.org/2000/svg"><g fill="#fff" fill-rule="evenodd" transform="translate(0 -5)"><g transform="matrix(.9945219 -.10452846 .10452846 .9945219 .117162 9.569035)"><path d="m22.3258143 2.55782049c0 5.36397306-2.7451763 13.50926551-5.9033437 13.50926551-1.141799 0-1.4333221-2.1604892-1.4333221-2.1604892s3.4011033-4.59414357 3.4011033-7.02779801c0-.76982947-.5587527-1.34099327-1.3604413-1.34099327-3.1581674 0-3.8626817 7.84729388-3.8626817 7.84729388s-2.1135428 2.731653-3.35251619 2.731653c-.60733989 0-1.04462461-.4221646-1.04462461-1.067828 0-2.7813193 4.1299112-8.96478829 4.1299112-11.99443974 0-2.03632311-1.3361477-3.05448466-3.30392895-3.05448466-3.54686495 0-9.59597025 3.62564846-9.59597025 7.15196408 0 1.98665669 2.79376349 3.67531492 4.08132406 3.67531492.34011033 0 .5101655-.1489993.5101655-.471831s-1.19038618-.86916231-1.19038618-2.78131937c0-2.40882124 3.52257136-6.08413611 5.4903526-6.08413611.72880786 0 1.04462461.52149738 1.04462461 1.11749438 0 3.55114884-4.47002159 9.4614525-4.47002159 12.9132685 0 1.6886582 1.43332214 2.7068197 2.98811226 2.7068197 2.52653394 0 4.93159994-2.855819 4.93159994-2.855819s.3886975 2.855819 3.0852866 2.855819c4.7129575 0 8.9157496-9.63528492 8.9157496-15.74425424 0-1.36582647-2.1378364-2.48332086-3.0609931-2.48332086-.1700551 0-.2915231.12416604-.2915231.32283171 0 .2731653.2915231.81949589.2915231 2.23498878z"/><path d="m52.8996326 14.4401752s-1.8949004 3.2283171-6.8750875 3.2283171c-2.405066 0-4.3971408-2.1853223-4.3971408-3.6504816 0-1.4403261 2.3321852-1.9866567 2.3321852-1.9866567s.5101655-.8194959 1.6276709-2.58265371c1.141799-1.7383246 1.919194-2.33432161 2.5265339-2.33432161.5101655 0 1.1903862.67049664 1.1903862.91882872 0 .34766492-.5830463.96849514-.5830463 1.63899177 0 1.96182353.9474502 2.78131933.9474502 4.29614513 0 1.2664936-.5587527 1.8873238-.5587527 1.8873238 1.9191941-.5214974 3.0124059-2.1604891 3.0124059-2.1604891s.1943487-.347665.4858719-.347665c.2672295 0 .5101655.2234989.5101655.4966642 0 .2234989-.2186424.595997-.2186424.595997zm-6.8507939-3.8243141s-1.7977261 2.8061526-1.7977261 3.1289843c0 1.4403261.3158168 2.8309858 1.1903862 2.8309858.7531015 0 1.3604413-.9684952 1.3604413-2.0859896 0-1.2664936-.7531014-2.8558189-.7531014-3.8739805z"/><path d="m33.1062615 13.8247144c0 .2234988-.2186424.595997-.2186424.595997s-1.7248452 3.0544846-5.4174718 3.0544846c-2.4536531 0-4.2270856-1.5396589-4.2270856-3.6504816 0-3.799481 3.0852866-6.30763504 5.1988295-6.30763504 1.4819093 0 2.6722955 1.29132685 2.6722955 2.60748694 0 1.191994-.8988631 3.6753148-3.9598561 3.6753148-.2672296 0-.9231566-.1489992-.9231566-.1489992 0 1.4651593.9717438 2.3094884 2.1378364 2.3094884 2.3078915 0 3.7412137-2.2846552 3.7412137-2.2846552s.1943487-.3476649.4858719-.3476649c.2672295 0 .5101655.2234989.5101655.4966642zm-6.7536196-1.1919941c1.7734325 0 3.1581675-2.3094884 3.1581675-3.35248312 0-.32283172-.1700552-.49666418-.4372848-.49666418-1.3361477 0-2.7208827 2.5578205-2.7208827 3.8491473z"/><path d="m60.1575085 14.4207114s.2672295-.3724982.2672295-.595997c0-.2731653-.2186424-.4966642-.5101655-.4966642s-.5344591.3476649-.5344591.3476649-1.4819093 2.259822-3.6926265 2.259822c-1.3361478 0-2.405066-.8194959-2.405066-2.5329873 0-2.259822 1.384735-4.66864321 2.7937635-4.66864321.3886975 0 .7045143.24833208.7045143.52149738 0 .52149738-.9717438.67049663-.9717438 1.51482573 0 .5463306.5830462 1.0429948 1.2389733 1.0429948.6316335 0 1.4576158-1.0429948 1.4576158-1.8873239 0-1.1423276-1.0446247-2.40882124-2.7694699-2.40882124-2.4779468 0-5.4417654 2.85581904-5.4417654 6.18346894 0 2.7813194 2.3078915 3.7746477 4.3971408 3.7746477 3.4496905 0 5.466059-3.0544846 5.466059-3.0544846z"/><path d="m70.9576531 14.4207114s-1.3847349 2.1356559-4.2270856 2.1356559c-.2915231 0-.6073399-.0248332-.9474502-.0744996-.7773951.6208302-1.7248453.9933283-2.7694699.9933283-2.0163684 0-3.7898009-1.5644921-3.7898009-3.5014824 0-4.17197904 3.1095802-6.45663424 5.6361142-6.45663424 2.0163684 0 3.5711585 1.39065969 3.5711585 3.67531484 0 1.3161601-.5587527 2.8806522-1.5062029 4.1223127.121468.0248332.2429359.0496664.3886975.0496664 1.6519645 0 2.8666443-1.6886582 2.8666443-1.6886582s.1943488-.3476649.4858719-.3476649c.2672295 0 .5101655.2234989.5101655.4966642 0 .2234988-.2186424.595997-.2186424.595997zm-6.0733988-5.6371384c-3.3452484-.29722218-4.2477606 7.4996288-1.6276709 7.499629 2.6200896.0000002 4.9729192-7.20240681 1.6276709-7.499629z"/><path d="m81.1832871 13.8247144c0 .2234988-.2186423.595997-.2186423.595997s-1.384735 2.1356559-4.2270857 2.1356559c-.2186423 0-.4858719-.0248332-.7531014-.0496664-.7531015.595997-1.6276709.9684951-2.5994147.9684951-1.5547902 0-2.4293596-1.2664936-2.4293596-1.2664936-.5587527 1.4651593-1.3118542 5.1653074-1.3118542 7.1022976 0 .3973314-.1214679.5463306-.4615783.5463306-.9231566 0-2.2107172-.4221645-2.2107172-1.7631578 0-1.7631578 2.16213-10.355448 3.425397-13.85693039.121468-.2979985.3644039-.47183096.6802207-.47183096.3401103 0 .9231566.14899925 1.6762581 1.34099327 0 0 1.7248453-1.58932536 3.1581674-1.58932536 1.7248453 0 2.9152315 1.66382498 2.9152315 3.10415104 0 1.3906597-.6316335 3.2779836-1.7248453 4.7183097.0728808.0248332.1457615.0248332.2186423.0248332 1.6519645 0 2.8666443-1.6886582 2.8666443-1.6886582s.1943488-.3476649.4858719-.3476649c.2672296 0 .5101655.2234989.5101655.4966642zm-5.3392836-4.9818455c-2.0508394-.65140678-5.7041842 6.0167394-2.9205389 7.2665006 2.7836453 1.2497613 4.9713784-6.61509382 2.9205389-7.2665006z"/><path d="m43.9937318 13.8817636c0 .2234989-.2186423.595997-.2186423.595997s-1.384735 2.135656-4.2270857 2.135656c-.2429359 0-.5344591 0-.8259822-.0496665-.8016887.6208303-1.7734325.9684952-2.9152315.9684952-1.6519645 0-3.7655073-1.6389918-3.7655073-3.7498145 0-5.81097083 3.0366994-13.7824308 6.7779132-13.7824308 1.0689182 0 2.1864236 1.29132685 2.1864236 2.18532236 0 2.08598952-3.425397 5.88547044-3.5225714 6.00963648.0971744-.07449962.898863-.62083021 1.7491389-.62083021 1.2875606 0 2.4050659 1.39065968 2.4050659 2.65715327 0 1.6886582-.5830462 3.6753149-1.7491388 5.1653074.0728808.0248332.1457615.0248332.2429359.0248332 1.6519645 0 2.8666443-1.6886581 2.8666443-1.6886581s.1943488-.347665.4858719-.347665c.2672296 0 .5101655.2234989.5101655.4966642zm-4.4214344-11.72127445c0-.2979985-.1700551-.49666417-.4615783-.49666417-.8745694 0-2.6237083 3.50148241-3.5468649 7.15196408 1.6519645-1.61415856 4.0084432-5.14047419 4.0084432-6.65529991zm-.9631911 7.15864147c-2.1225866-.14514601-6.2736974 6.76587838-2.8023162 6.89695458 3.4713813.1310763 4.9249029-6.75180858 2.8023162-6.89695458z"/><path d="m89.0471897 13.9589479c0 .2234989-.2186424.595997-.2186424.595997s-1.7248453 3.0544847-5.4174718 3.0544847c-2.4536532 0-4.2270856-1.539659-4.2270856-3.6504817 0-3.7994809 3.0852866-6.30763498 5.1988294-6.30763498 1.4819094 0 2.6722955 1.29132685 2.6722955 2.60748688 0 1.191994-.898863 3.6753149-3.959856 3.6753149-.2672296 0-.9231567-.1489992-.9231567-.1489992 0 1.4651593.9717438 2.3094884 2.1378364 2.3094884 2.3078916 0 3.7412138-2.2846552 3.7412138-2.2846552s.1943487-.347665.4858719-.347665c.2672295 0 .5101655.2234989.5101655.4966642zm-6.7536196-1.191994c1.7734325 0 3.1581674-2.3094884 3.1581674-3.35248316 0-.32283172-.1700551-.49666418-.4372847-.49666418-1.3361478 0-2.7208827 2.55782054-2.7208827 3.84914734z"/></g><path d="m19.8094784 36.5433464c-.1468245-.0515204 0-1.4778553 1.9415852-2.6416937 12.7907165-5.8524999 58.7161818-14.188005 67.5207147-13.1500812 2.4605419 1.2835216 2.024487 2.8721114 2.0244887 2.8721115-22.7256132 0-65.4886847 10.4420899-71.4867886 12.9196634z" transform="matrix(.99939083 .0348995 -.0348995 .99939083 1.032078 -1.92113)"/></g></svg>

<?xml version="1.0" encoding="UTF-8"?>
<svg width="92px" height="31px" viewBox="0 0 92 31" version="1.1" xmlns="http://www.w3.org/2000/svg" xmlns:xlink="http://www.w3.org/1999/xlink">
    <!-- Generator: Sketch 42 (36781) - http://www.bohemiancoding.com/sketch -->
    <title>webscope</title>
    <desc>Created with Sketch.</desc>
    <defs></defs>
    <g id="Page-1" stroke="none" stroke-width="1" fill="none" fill-rule="evenodd">
        <g id="Desktop-HD-Copy-5" transform="translate(-674.000000, -2105.000000)" fill="#FFFFFF">
            <g id="Group-11" transform="translate(0.000000, 2080.000000)">
                <g id="webscope" transform="translate(674.000000, 20.000000)">
                    <g id="Group-Copy" transform="translate(46.124989, 16.799517) rotate(-6.000000) translate(-46.124989, -16.799517) translate(1.124989, 4.799517)">
                        <path d="M22.3258143,2.55782049 C22.3258143,7.92179355 19.580638,16.067086 16.4224706,16.067086 C15.2806716,16.067086 14.9891485,13.9065968 14.9891485,13.9065968 C14.9891485,13.9065968 18.3902518,9.31245323 18.3902518,6.87879879 C18.3902518,6.10896932 17.8314991,5.53780552 17.0298105,5.53780552 C13.8716431,5.53780552 13.1671288,13.3850994 13.1671288,13.3850994 C13.1671288,13.3850994 11.053586,16.1167524 9.81461261,16.1167524 C9.20727272,16.1167524 8.769988,15.6945878 8.769988,15.0489244 C8.769988,12.2676051 12.8998992,6.08413611 12.8998992,3.05448466 C12.8998992,1.01816155 11.5637515,5.15143483e-14 9.59597025,5.15143483e-14 C6.0491053,5.15143483e-14 2.92543767e-13,3.62564846 2.92543767e-13,7.15196408 C2.92543767e-13,9.13862077 2.79376349,10.827279 4.08132406,10.827279 C4.42143439,10.827279 4.59148956,10.6782797 4.59148956,10.355448 C4.59148956,10.0326163 3.40110338,9.48628569 3.40110338,7.57412863 C3.40110338,5.16530739 6.92367474,1.48999252 8.89145598,1.48999252 C9.62026384,1.48999252 9.93608059,2.0114899 9.93608059,2.6074869 C9.93608059,6.15863574 5.466059,12.0689394 5.466059,15.5207554 C5.466059,17.2094136 6.89938114,18.2275751 8.45417126,18.2275751 C10.9807052,18.2275751 13.3857712,15.3717561 13.3857712,15.3717561 C13.3857712,15.3717561 13.7744687,18.2275751 16.4710578,18.2275751 C21.1840153,18.2275751 25.3868074,8.59229018 25.3868074,2.48332086 C25.3868074,1.11749439 23.248971,5.15143483e-14 22.3258143,5.15143483e-14 C22.1557592,5.15143483e-14 22.0342912,0.124166043 22.0342912,0.322831712 C22.0342912,0.595997007 22.3258143,1.1423276 22.3258143,2.55782049 L22.3258143,2.55782049 Z" id="Webscope"></path>
                        <path d="M52.8996326,14.4401752 C52.8996326,14.4401752 51.0047322,17.6684923 46.0245451,17.6684923 C43.6194791,17.6684923 41.6274043,15.48317 41.6274043,14.0180107 C41.6274043,12.5776846 43.9595895,12.031354 43.9595895,12.031354 C43.9595895,12.031354 44.469755,11.2118581 45.5872604,9.44870029 C46.7290594,7.71037569 47.5064544,7.11437868 48.1137943,7.11437868 C48.6239598,7.11437868 49.3041805,7.78487532 49.3041805,8.0332074 C49.3041805,8.38087232 48.7211342,9.00170254 48.7211342,9.67219917 C48.7211342,11.6340227 49.6685844,12.4535185 49.6685844,13.9683443 C49.6685844,15.2348379 49.1098317,15.8556681 49.1098317,15.8556681 C51.0290258,15.3341707 52.1222376,13.695179 52.1222376,13.695179 C52.1222376,13.695179 52.3165863,13.347514 52.6081095,13.347514 C52.875339,13.347514 53.118275,13.5710129 53.118275,13.8441782 C53.118275,14.0676771 52.8996326,14.4401752 52.8996326,14.4401752 Z M46.0488387,10.6158611 C46.0488387,10.6158611 44.2511126,13.4220137 44.2511126,13.7448454 C44.2511126,15.1851715 44.5669294,16.5758312 45.4414988,16.5758312 C46.1946003,16.5758312 46.8019401,15.607336 46.8019401,14.4898416 C46.8019401,13.223348 46.0488387,11.6340227 46.0488387,10.6158611 Z" id="Combined-Shape"></path>
                        <path d="M33.1062615,13.8247144 C33.1062615,14.0482132 32.8876191,14.4207114 32.8876191,14.4207114 C32.8876191,14.4207114 31.1627739,17.475196 27.4701473,17.475196 C25.0164942,17.475196 23.2430617,15.9355371 23.2430617,13.8247144 C23.2430617,10.0252334 26.3283483,7.51707936 28.4418912,7.51707936 C29.9238005,7.51707936 31.1141867,8.80840621 31.1141867,10.1245663 C31.1141867,11.3165603 30.2153236,13.7998811 27.1543306,13.7998811 C26.887101,13.7998811 26.231174,13.6508819 26.231174,13.6508819 C26.231174,15.1160412 27.2029178,15.9603703 28.3690104,15.9603703 C30.6769019,15.9603703 32.1102241,13.6757151 32.1102241,13.6757151 C32.1102241,13.6757151 32.3045728,13.3280502 32.596096,13.3280502 C32.8633255,13.3280502 33.1062615,13.5515491 33.1062615,13.8247144 Z M26.3526419,12.6327203 C28.1260744,12.6327203 29.5108094,10.3232319 29.5108094,9.28023718 C29.5108094,8.95740546 29.3407542,8.783573 29.0735246,8.783573 C27.7373769,8.783573 26.3526419,11.3413935 26.3526419,12.6327203 Z" id="Combined-Shape"></path>
                        <path d="M60.1575085,14.4207114 C60.1575085,14.4207114 60.424738,14.0482132 60.424738,13.8247144 C60.424738,13.5515491 60.2060956,13.3280502 59.9145725,13.3280502 C59.6230494,13.3280502 59.3801134,13.6757151 59.3801134,13.6757151 C59.3801134,13.6757151 57.8982041,15.9355371 55.6874869,15.9355371 C54.3513391,15.9355371 53.2824209,15.1160412 53.2824209,13.4025498 C53.2824209,11.1427278 54.6671559,8.73390659 56.0761844,8.73390659 C56.4648819,8.73390659 56.7806987,8.98223867 56.7806987,9.25540397 C56.7806987,9.77690135 55.8089549,9.9259006 55.8089549,10.7702297 C55.8089549,11.3165603 56.3920011,11.8132245 57.0479282,11.8132245 C57.6795617,11.8132245 58.505544,10.7702297 58.505544,9.9259006 C58.505544,8.783573 57.4609193,7.51707936 55.7360741,7.51707936 C53.2581273,7.51707936 50.2943087,10.3728984 50.2943087,13.7005483 C50.2943087,16.4818677 52.6022002,17.475196 54.6914495,17.475196 C58.14114,17.475196 60.1575085,14.4207114 60.1575085,14.4207114 L60.1575085,14.4207114 Z" id="Path"></path>
                        <path d="M70.9576531,14.4207114 C70.9576531,14.4207114 69.5729182,16.5563673 66.7305675,16.5563673 C66.4390444,16.5563673 66.1232276,16.5315341 65.7831173,16.4818677 C65.0057222,17.1026979 64.058272,17.475196 63.0136474,17.475196 C60.997279,17.475196 59.2238465,15.9107039 59.2238465,13.9737136 C59.2238465,9.80173456 62.3334267,7.51707936 64.8599607,7.51707936 C66.8763291,7.51707936 68.4311192,8.90773905 68.4311192,11.1923942 C68.4311192,12.5085543 67.8723665,14.0730464 66.9249163,15.3147069 C67.0463843,15.3395401 67.1678522,15.3643733 67.3136138,15.3643733 C68.9655783,15.3643733 70.1802581,13.6757151 70.1802581,13.6757151 C70.1802581,13.6757151 70.3746069,13.3280502 70.66613,13.3280502 C70.9333595,13.3280502 71.1762955,13.5515491 71.1762955,13.8247144 C71.1762955,14.0482132 70.9576531,14.4207114 70.9576531,14.4207114 Z M64.8842543,8.783573 C61.5390059,8.48635082 60.6364937,16.2832018 63.2565834,16.283202 C65.876673,16.2832022 68.2295026,9.08079519 64.8842543,8.783573 Z" id="Combined-Shape"></path>
                        <path d="M81.1832871,13.8247144 C81.1832871,14.0482132 80.9646448,14.4207114 80.9646448,14.4207114 C80.9646448,14.4207114 79.5799098,16.5563673 76.7375591,16.5563673 C76.5189168,16.5563673 76.2516872,16.5315341 75.9844577,16.5067009 C75.2313562,17.1026979 74.3567868,17.475196 73.385043,17.475196 C71.8302528,17.475196 70.9556834,16.2087024 70.9556834,16.2087024 C70.3969307,17.6738617 69.6438292,21.3740098 69.6438292,23.311 C69.6438292,23.7083314 69.5223613,23.8573306 69.1822509,23.8573306 C68.2590943,23.8573306 66.9715337,23.4351661 66.9715337,22.0941728 C66.9715337,20.331015 69.1336637,11.7387248 70.3969307,8.23724241 C70.5183987,7.93924391 70.7613346,7.76541145 71.0771514,7.76541145 C71.4172617,7.76541145 72.000308,7.9144107 72.7534095,9.10640472 C72.7534095,9.10640472 74.4782548,7.51707936 75.9115769,7.51707936 C77.6364222,7.51707936 78.8268084,9.18090434 78.8268084,10.6212304 C78.8268084,12.0118901 78.1951749,13.899214 77.1019631,15.3395401 C77.1748439,15.3643733 77.2477246,15.3643733 77.3206054,15.3643733 C78.9725699,15.3643733 80.1872497,13.6757151 80.1872497,13.6757151 C80.1872497,13.6757151 80.3815985,13.3280502 80.6731216,13.3280502 C80.9403512,13.3280502 81.1832871,13.5515491 81.1832871,13.8247144 Z M75.8440035,8.8428689 C73.7931641,8.19146212 70.1398193,14.8596083 72.9234646,16.1093695 C75.7071099,17.3591308 77.894843,9.49427568 75.8440035,8.8428689 Z" id="Combined-Shape"></path>
                        <path d="M43.9937318,13.8817636 C43.9937318,14.1052625 43.7750895,14.4777606 43.7750895,14.4777606 C43.7750895,14.4777606 42.3903545,16.6134166 39.5480038,16.6134166 C39.3050679,16.6134166 39.0135447,16.6134166 38.7220216,16.5637501 C37.9203329,17.1845804 36.9485891,17.5322453 35.8067901,17.5322453 C34.1548256,17.5322453 32.0412828,15.8932535 32.0412828,13.7824308 C32.0412828,7.97145997 35.0779822,1.66977543e-12 38.819196,1.66977543e-12 C39.8881142,1.66977543e-12 41.0056196,1.29132685 41.0056196,2.18532236 C41.0056196,4.27131188 37.5802226,8.0707928 37.4830482,8.19495884 C37.5802226,8.12045922 38.3819112,7.57412863 39.2321871,7.57412863 C40.5197477,7.57412863 41.637253,8.96478831 41.637253,10.2312819 C41.637253,11.9199401 41.0542068,13.9065968 39.8881142,15.3965893 C39.960995,15.4214225 40.0338757,15.4214225 40.1310501,15.4214225 C41.7830146,15.4214225 42.9976944,13.7327644 42.9976944,13.7327644 C42.9976944,13.7327644 43.1920432,13.3850994 43.4835663,13.3850994 C43.7507959,13.3850994 43.9937318,13.6085983 43.9937318,13.8817636 Z M39.5722974,2.16048915 C39.5722974,1.86249065 39.4022423,1.66382498 39.1107191,1.66382498 C38.2361497,1.66382498 36.4870108,5.16530739 35.5638542,8.81578906 C37.2158187,7.2016305 39.5722974,3.67531487 39.5722974,2.16048915 Z M38.6091063,9.31913062 C36.4865197,9.17398461 32.3354089,16.085009 35.8067901,16.2160852 C39.2781714,16.3471615 40.731693,9.46427662 38.6091063,9.31913062 Z" id="Combined-Shape"></path>
                        <path d="M89.0471897,13.9589479 C89.0471897,14.1824468 88.8285473,14.5549449 88.8285473,14.5549449 C88.8285473,14.5549449 87.103702,17.6094296 83.4110755,17.6094296 C80.9574223,17.6094296 79.1839899,16.0697706 79.1839899,13.9589479 C79.1839899,10.159467 82.2692765,7.65131292 84.3828193,7.65131292 C85.8647287,7.65131292 87.0551148,8.94263977 87.0551148,10.2587998 C87.0551148,11.4507938 86.1562518,13.9341147 83.0952588,13.9341147 C82.8280292,13.9341147 82.1721021,13.7851155 82.1721021,13.7851155 C82.1721021,15.2502748 83.1438459,16.0946039 84.3099385,16.0946039 C86.6178301,16.0946039 88.0511523,13.8099487 88.0511523,13.8099487 C88.0511523,13.8099487 88.245501,13.4622837 88.5370242,13.4622837 C88.8042537,13.4622837 89.0471897,13.6857826 89.0471897,13.9589479 Z M82.2935701,12.7669539 C84.0670026,12.7669539 85.4517375,10.4574655 85.4517375,9.41447074 C85.4517375,9.09163902 85.2816824,8.91780656 85.0144528,8.91780656 C83.678305,8.91780656 82.2935701,11.4756271 82.2935701,12.7669539 Z" id="Combined-Shape"></path>
                    </g>
                    <path d="M19.8094784,36.5433464 C19.6626539,36.491826 19.8094784,35.0654911 21.7510636,33.9016527 C34.5417801,28.0491528 80.4672454,19.7136477 89.2717783,20.7515715 C91.7323202,22.0350931 91.2962653,23.6236829 91.296267,23.623683 C68.5706538,23.623683 25.8075823,34.0657729 19.8094784,36.5433464 Z" id="Path-42" transform="translate(55.546771, 28.603297) rotate(2.000000) translate(-55.546771, -28.603297) "></path>
                </g>
            </g>
        </g>
    </g>
</svg>
